Adwaita++/mimetypes/symbolic/application-x-appliance-symbolic.svg

<svg height="16.017" width="16.017" xmlns="http://www.w3.org/2000/svg">
  <g fill="#474747">
    <path d="m4 2a2 2 0 0 1 -2 2 2 2 0 0 1 -2-2 2 2 0 0 1 2-2 2 2 0 0 1 2 2zm0 12a2 2 0 0 1 -2 2 2 2 0 0 1 -2-2 2 2 0 0 1 2-2 2 2 0 0 1 2 2zm12 0a2 2 0 0 1 -2 2 2 2 0 0 1 -2-2 2 2 0 0 1 2-2 2 2 0 0 1 2 2zm0-12a2 2 0 0 1 -2 2 2 2 0 0 1 -2-2 2 2 0 0 1 2-2 2 2 0 0 1 2 2z"/>
    <path d="m1 1v14h14v-14zm2 2h10v10h-10z"/>
    <path d="m5 5v6h6v-6zm1 1h4v4h-4z"/>
    <path d="m12 10.5a1.5 1.5 0 0 1 -1.5 1.5 1.5 1.5 0 0 1 -1.5-1.5 1.5 1.5 0 0 1 1.5-1.5 1.5 1.5 0 0 1 1.5 1.5zm-5 0a1.5 1.5 0 0 1 -1.5 1.5 1.5 1.5 0 0 1 -1.5-1.5 1.5 1.5 0 0 1 1.5-1.5 1.5 1.5 0 0 1 1.5 1.5zm0-4.984a1.5 1.516 0 0 1 -1.5 1.514 1.5 1.516 0 0 1 -1.5-1.514 1.5 1.516 0 0 1 1.5-1.516 1.5 1.516 0 0 1 1.5 1.516zm5-.016a1.5 1.5 0 0 1 -1.5 1.5 1.5 1.5 0 0 1 -1.5-1.5 1.5 1.5 0 0 1 1.5-1.5 1.5 1.5 0 0 1 1.5 1.5z"/>
    <path d="m10.854 10.146-.708.708 3.5 3.5.708-.708zm-5.708 0-3.5 3.5.708.708 3.5-3.5zm8.52-8.453-3.5 3.47.703.71 3.5-3.469zm-11.264.002-.707.707 3.425 3.424.707-.707z"/>
  </g>
</svg>

<svg xmlns="http://www.w3.org/2000/svg" width="16.017" height="16.017">
    <g color="#000" fill="#2e3436">
        <path d="M4 2a2 2 0 0 1-2 2 2 2 0 0 1-2-2 2 2 0 0 1 2-2 2 2 0 0 1 2 2zM4 14a2 2 0 0 1-2 2 2 2 0 0 1-2-2 2 2 0 0 1 2-2 2 2 0 0 1 2 2zM16 14a2 2 0 0 1-2 2 2 2 0 0 1-2-2 2 2 0 0 1 2-2 2 2 0 0 1 2 2zM16 2a2 2 0 0 1-2 2 2 2 0 0 1-2-2 2 2 0 0 1 2-2 2 2 0 0 1 2 2z" style="marker:none" overflow="visible"/>
        <path d="M1 1v14h14V1zm2 2h10v10H3z" style="line-height:normal;font-variant-ligatures:normal;font-variant-position:normal;font-variant-caps:normal;font-variant-numeric:normal;font-variant-alternates:normal;font-feature-settings:normal;text-indent:0;text-align:start;text-decoration-line:none;text-decoration-style:solid;text-decoration-color:#000;text-transform:none;text-orientation:mixed;shape-padding:0;isolation:auto;mix-blend-mode:normal;marker:none" font-weight="400" font-family="sans-serif" white-space="normal" overflow="visible"/>
        <path d="M5 5v6h6V5zm1 1h4v4H6z" style="line-height:normal;font-variant-ligatures:normal;font-variant-position:normal;font-variant-caps:normal;font-variant-numeric:normal;font-variant-alternates:normal;font-feature-settings:normal;text-indent:0;text-align:start;text-decoration-line:none;text-decoration-style:solid;text-decoration-color:#000;text-transform:none;text-orientation:mixed;shape-padding:0;isolation:auto;mix-blend-mode:normal;marker:none" font-weight="400" font-family="sans-serif" white-space="normal" overflow="visible"/>
        <path d="M12 10.5a1.5 1.5 0 0 1-1.5 1.5A1.5 1.5 0 0 1 9 10.5 1.5 1.5 0 0 1 10.5 9a1.5 1.5 0 0 1 1.5 1.5zM7 10.5A1.5 1.5 0 0 1 5.5 12 1.5 1.5 0 0 1 4 10.5 1.5 1.5 0 0 1 5.5 9 1.5 1.5 0 0 1 7 10.5zM7 5.516A1.5 1.516 0 0 1 5.5 7.03 1.5 1.516 0 0 1 4 5.516 1.5 1.516 0 0 1 5.5 4 1.5 1.516 0 0 1 7 5.516zM12 5.5A1.5 1.5 0 0 1 10.5 7 1.5 1.5 0 0 1 9 5.5 1.5 1.5 0 0 1 10.5 4 1.5 1.5 0 0 1 12 5.5z" style="marker:none" overflow="visible"/>
        <path d="M10.854 10.146l-.708.708 3.5 3.5.708-.708zM5.146 10.146l-3.5 3.5.708.708 3.5-3.5zM13.666 1.693l-3.5 3.47.703.71 3.5-3.469zM2.402 1.695l-.707.707L5.12 5.826l.707-.707z" style="line-height:normal;font-variant-ligatures:normal;font-variant-position:normal;font-variant-caps:normal;font-variant-numeric:normal;font-variant-alternates:normal;font-feature-settings:normal;text-indent:0;text-align:start;text-decoration-line:none;text-decoration-style:solid;text-decoration-color:#000;text-transform:none;text-orientation:mixed;shape-padding:0;isolation:auto;mix-blend-mode:normal;marker:none" font-weight="400" font-family="sans-serif" white-space="normal" overflow="visible"/>
    </g>
</svg>
